**kern	**silbe	**kern	**silbe	**harmony	**chordsym	**phrase	**timestamp	**leadinstrument
*ICvox	*	*ICvox	*	*M4/4	*M4/4	*	*	*
*E:	*	*E:	*	*E:	*E:	*	*	*
*M4/4	*	*M4/4	*	*	*	*	*	*
*clefF4	*	*clefG2	*	*	*	*	*	*
r;	.	r;	.	1r;	r	.	0	r
=1	=1	=1	=1	=1	=1	=1	=1	=1
*	*	*	*	*>A_intro	*>A_intro	*>A_intro	*>A_intro	*>A_intro
1r	.	1r	.	1EM	E:maj (E G# B)	newline	0.441	guitar
=2	=2	=2	=2	=2	=2	=2	=2	=2
1r	.	1r	.	1EM	E:maj (E G# B)	.	.	guitar
=3	=3	=3	=3	=3	=3	=3	=3	=3
*	*	*	*	*>B_verse	*>B_verse	*>B_verse	*>B_verse	*>B_verse
8G#	I	1r	.	1EM	E:maj6(9) (E G# B C# F#)	newline	4.969	voice
4B	came	.	.	.	.	.	.	.
8[B	in	.	.	.	.	.	.	.
8B]	_	.	.	.	.	.	.	.
4B	to	.	.	.	.	.	.	.
8A	town	.	.	.	.	.	.	.
=4	=4	=4	=4	=4	=4	=4	=4	=4
2B	_	1r	.	1G#mm	G#:min7 (G# B D# F#)	.	.	voice
4r	.	.	.	.	.	.	.	.
8A	with	.	.	.	.	.	.	.
8G#	a	.	.	.	.	.	.	.
=5	=5	=5	=5	=5	=5	=5	=5	=5
8F#	knap-	1r	.	1F#mm	F#:min7 (F# A C# E)	.	.	voice
4A	-sack	.	.	.	.	.	.	.
8[A	on	.	.	.	.	.	.	.
8A]	_	.	.	.	.	.	.	.
4A	my	.	.	.	.	.	.	.
8[A	shoul	.	.	.	.	.	.	.
=6	=6	=6	=6	=6	=6	=6	=6	=6
8A]	_	1r	.	1BMm	B:7 (B D# F# A)	.	.	voice
4G#	der	.	.	.	.	.	.	.
8r	.	.	.	.	.	.	.	.
8r	.	.	.	.	.	.	.	.
4E	and	.	.	.	.	.	.	.
8D#	a	.	.	.	.	.	.	.
=7	=7	=7	=7	=7	=7	=7	=7	=7
8E	poc-	1r	.	2C#m	C#:min (C# E G#)	newline	12.838	voice
4G#	-ket	.	.	.	.	.	.	.
8[G#	full	.	.	.	.	.	.	.
8G#]	_	.	.	2EM	E:maj (B E G#)	.	.	voice
4G#	of	.	.	.	.	.	.	.
8F#q	_	.	.	.	.	.	.	.
8[G#	sto	.	.	.	.	.	.	.
=8	=8	=8	=8	=8	=8	=8	=8	=8
8G#]	_	1r	.	2AM	A:maj (A C# E)	.	.	voice
4.F#	ries	.	.	.	.	.	.	.
4r	.	.	.	2G#mm	G#:min7 (G# B D# F#)	.	.	voice
8r	.	.	.	.	.	.	.	.
8C#	that	.	.	.	.	.	.	.
=9	=9	=9	=9	=9	=9	=9	=9	=9
8F#	I	1r	.	1F#mm	F#:min7 (F# A C# E)	.	.	voice
4F#	just	.	.	.	.	.	.	.
8F#	had	.	.	.	.	.	.	.
8r	.	.	.	.	.	.	.	.
8E	to	.	.	.	.	.	.	.
8E	tell	.	.	.	.	.	.	.
8[F#	_	.	.	.	.	.	.	.
=10	=10	=10	=10	=10	=10	=10	=10	=10
4F#]	_	1r	.	1BMm	B:7 (B D# F# A)	.	.	voice
4r	.	.	.	.	.	.	.	.
4r	.	.	.	.	.	.	.	.
8r	.	.	.	.	.	.	.	.
8BB~	You	.	.	.	.	.	.	.
=11	=11	=11	=11	=11	=11	=11	=11	=11
8G#	know	1r	.	1EM	E:maj6(9) (E G# B C# F#)	newline	20.673	voice
4B	I've	.	.	.	.	.	.	.
8[B	knocked	.	.	.	.	.	.	.
8B]	_	.	.	.	.	.	.	.
8[G#	a	.	.	.	.	.	.	.
16G#]	_	.	.	.	.	.	.	.
8.[B	round	.	.	.	.	.	.	.
=12	=12	=12	=12	=12	=12	=12	=12	=12
8B]	_	1r	.	1G#mm	G#:min7 (G# B D# F#)	.	.	voice
8c#	a	.	.	.	.	.	.	.
8B	bit	.	.	.	.	.	.	.
8r	.	.	.	.	.	.	.	.
4r	.	.	.	.	.	.	.	.
8A	and	.	.	.	.	.	.	.
8G#	I've	.	.	.	.	.	.	.
=13	=13	=13	=13	=13	=13	=13	=13	=13
8F#	had	1r	.	1F#mm	F#:min7 (F# A C# E)	.	.	voice
8A	my	.	.	.	.	.	.	.
4A	share	.	.	.	.	.	.	.
4r	.	.	.	.	.	.	.	.
8r	.	.	.	.	.	.	.	.
8E~	of	.	.	.	.	.	.	.
=14	=14	=14	=14	=14	=14	=14	=14	=14
4A	small	1r	.	1BMm	B:7 (B D# F# A)	.	.	voice
4A	town	.	.	.	.	.	.	.
8G#	glo-	.	.	.	.	.	.	.
8F#	-ries,	.	.	.	.	.	.	.
4[G#	_	.	.	.	.	.	.	.
=15	=15	=15	=15	=15	=15	=15	=15	=15
8G#]	_	1r	.	2C#m	C#:min (C# E G#)	newline	28.386	voice
4E	it's	.	.	.	.	.	.	.
8[E	time	.	.	.	.	.	.	.
8E]	_	.	.	2EM	E:maj (B E G#)	.	.	voice
8F#	to	.	.	.	.	.	.	.
8G#~	hit	.	.	.	.	.	.	.
8F#	the	.	.	.	.	.	.	.
=16	=16	=16	=16	=16	=16	=16	=16	=16
8G#	ci-	1r	.	2AM	A:maj (A C# E)	.	.	voice
8F#	-ty	.	.	.	.	.	.	.
8r	.	.	.	.	.	.	.	.
8[E	and	.	.	.	.	.	.	.
8E]	_	.	.	2G#mm	G#:min7 (G# B D# F#)	.	.	voice
4C#	that	.	.	.	.	.	.	.
8Eq	_	.	.	.	.	.	.	.
8[F#	cra	.	.	.	.	.	.	.
=17	=17	=17	=17	=17	=17	=17	=17	=17
8F#]	_	1r	.	1F#mm	F#:min7 (F# A C# E)	.	.	voice
4F#	zy	.	.	.	.	.	.	.
8Eq	_	.	.	.	.	.	.	.
8[F#	ca	.	.	.	.	.	.	.
8F#]	_	.	.	.	.	.	.	.
4F#	rou	.	.	.	.	.	.	.
8Eq	_	.	.	.	.	.	.	.
8[F#	sel	.	.	.	.	.	.	.
=18	=18	=18	=18	=18	=18	=18	=18	=18
4.F#]	_	1r	.	1BMm	B:7 (B D# F# A)	.	.	voice
8r	.	.	.	.	.	.	.	.
4r	.	.	.	.	.	.	.	.
8r	.	.	.	.	.	.	.	.
8C#~	I've	.	.	.	.	.	.	.
=19	=19	=19	=19	=19	=19	=19	=19	=19
*	*	*	*	*>C_prechorus	*>C_prechorus	*>C_prechorus	*>C_prechorus	*>C_prechorus
8c#	_	1r	.	1AM	A:maj (A C# E)	newline	35.998	voice
4c#	been	.	.	.	.	.	.	.
8[c#	fee	.	.	.	.	.	.	.
8c#]	_	.	.	.	.	.	.	.
8c#q	_	.	.	.	.	.	.	.
4.e	ling	.	.	.	.	.	.	.
=20	=20	=20	=20	=20	=20	=20	=20	=20
8d#	sor-	1r	.	1BM	B:maj (B D# F#)	.	.	voice
4c#	-ry	.	.	.	.	.	.	.
8[B	for	.	.	.	.	.	.	.
8B]	_	.	.	.	.	.	.	.
8Bq	_	.	.	.	.	.	.	.
4c#	my-	.	.	.	.	.	.	.
8[B	-self	.	.	.	.	.	.	.
=21	=21	=21	=21	=21	=21	=21	=21	=21
1B_	_	1r	.	1G#m	G#:min (G# B D#)	.	.	voice
=22	=22	=22	=22	=22	=22	=22	=22	=22
4B]	_	1r	.	1C#m	C#:min (C# E G#)	.	.	voice
4r	.	.	.	.	.	.	.	.
8r	.	.	.	.	.	.	.	.
8G#q	_	.	.	.	.	.	.	.
4A	But,	.	.	.	.	.	.	.
8G#	you	.	.	.	.	.	.	.
=23	=23	=23	=23	=23	=23	=23	=23	=23
4A	know	1r	.	1F#m	F#:min (F# A C#)	newline	43.419	voice
8A	I	.	.	.	.	.	.	.
8F#	was	.	.	.	.	.	.	.
4A	on-	.	.	.	.	.	.	.
8B	-ly	.	.	.	.	.	.	.
8[G#	lone	.	.	.	.	.	.	.
=24	=24	=24	=24	=24	=24	=24	=24	=24
8G#]	_	1r	.	1BM	B:maj (B D# F#)	.	.	voice
4.F#	ly	.	.	.	.	.	.	.
4r	.	.	.	.	.	.	.	.
4E	like	.	.	.	.	.	.	.
=25	=25	=25	=25	=25	=25	=25	=25	=25
8G#q	_	.	.	.	.	.	.	.
4A	ev-	1r	.	1AM	A:maj (A C# E)	.	.	voice
4G#	-'ry-	.	.	.	.	.	.	.
8E	-bo-	.	.	.	.	.	.	.
8E	-dy	.	.	.	.	.	.	.
8C#	_	.	.	.	.	.	.	.
8[E	else	.	.	.	.	.	.	.
=26	=26	=26	=26	=26	=26	=26	=26	=26
2.E]	_	1r	.	1N	N	.	.	voice
4r	.	.	.	.	.	.	.	.
=27	=27	=27	=27	=27	=27	=27	=27	=27
2r	.	1r	.	1N	N	.	.	voice
8r	.	.	.	.	.	.	.	.
8G#	Un-	.	.	.	.	.	.	.
4B	-til	.	.	.	.	.	.	.
=28	=28	=28	=28	=28	=28	=28	=28	=28
*	*	*	*	*>D_chorus	*>D_chorus	*>D_chorus	*>D_chorus	*>D_chorus
4r	.	1r	.	1EM	E:maj (E G# B)	newline	52.936	voice
4B	you	.	.	.	.	.	.	.
4B	brought	.	.	.	.	.	.	.
4B	your	.	.	.	.	.	.	.
=29	=29	=29	=29	=29	=29	=29	=29	=29
4B	Sun-	1r	.	1EM	E:maj (E G# B)	.	.	voice
8G#	-day	.	.	.	.	.	.	.
8[A	mor	.	.	.	.	.	.	.
8A]	_	.	.	.	.	.	.	.
8A	ning	.	.	.	.	.	.	.
4B	_	.	.	.	.	.	.	.
=30	=30	=30	=30	=30	=30	=30	=30	=30
4.B	sun-	1r	.	1F#Mm	F#:11 (F# A# E B)	.	.	voice
8[A	-shine	.	.	.	.	.	.	.
2A]	_	.	.	.	.	.	.	.
=31	=31	=31	=31	=31	=31	=31	=31	=31
1r	.	1r	.	1F#Mm	F#:11 (F# A# E B)	.	.	voice
=32	=32	=32	=32	=32	=32	=32	=32	=32
8c#	Here	1r	.	1DM	D:maj (D F# A)	newline	60.793	voice
4c#	in-	.	.	.	.	.	.	.
8[c#	-to	.	.	.	.	.	.	.
8c#]	_	.	.	.	.	.	.	.
4c#	my	.	.	.	.	.	.	.
8B#q	_	.	.	.	.	.	.	.
8[c#	Mon	.	.	.	.	.	.	.
=33	=33	=33	=33	=33	=33	=33	=33	=33
4c#]	_	1r	.	1AM	A:maj (A C# E)	.	.	voice
4c#	day	.	.	.	.	.	.	.
8B#q	_	.	.	.	.	.	.	.
4c#	mor-	.	.	.	.	.	.	.
8B	-ning	.	.	.	.	.	.	.
8[B	rain	.	.	.	.	.	.	.
=34	=34	=34	=34	=34	=34	=34	=34	=34
2B]	_	1r	.	1EM	E:maj (E G# B)	.	.	voice
2r	.	.	.	.	.	.	.	.
=35	=35	=35	=35	=35	=35	=35	=35	=35
1r	.	1r	.	1EM	E:maj (E G# B)	.	.	voice
=36	=36	=36	=36	=36	=36	=36	=36	=36
4r	.	1r	.	1EM	E:maj (E G# B)	newline	68.499	voice
4B	You	.	.	.	.	.	.	.
4B	taught	.	.	.	.	.	.	.
4B	me	.	.	.	.	.	.	.
=37	=37	=37	=37	=37	=37	=37	=37	=37
4B	hap-	1r	.	1EM	E:maj (E G# B)	.	.	voice
8G#	-pi-	.	.	.	.	.	.	.
8[A	-ness	.	.	.	.	.	.	.
8A]	_	.	.	.	.	.	.	.
8A	just	.	.	.	.	.	.	.
4B	_	.	.	.	.	.	.	.
=38	=38	=38	=38	=38	=38	=38	=38	=38
8Aq	_	.	.	.	.	.	.	.
4.B	one	1r	.	1F#Mm	F#:11 (F# A# E B)	.	.	voice
8[A	time	.	.	.	.	.	.	.
2A]	_	.	.	.	.	.	.	.
=39	=39	=39	=39	=39	=39	=39	=39	=39
1r	.	1r	.	1F#Mm	F#:11 (F# A# E B)	.	.	voice
=40	=40	=40	=40	=40	=40	=40	=40	=40
4r	.	1r	.	1DM	D:maj (D F# A)	newline	76.328	voice
4c#	it	.	.	.	.	.	.	.
4c#	keeps	.	.	.	.	.	.	.
4c#	on	.	.	.	.	.	.	.
=41	=41	=41	=41	=41	=41	=41	=41	=41
8c#	co-	1r	.	1AM	A:maj (A C# E)	.	.	voice
4c#	-ming	.	.	.	.	.	.	.
8c#	back	.	.	.	.	.	.	.
4r	.	.	.	.	.	.	.	.
8B	a	.	.	.	.	.	.	.
8Bq	_	.	.	.	.	.	.	.
8[c#	gain	.	.	.	.	.	.	.
=42	=42	=42	=42	=42	=42	=42	=42	=42
1c#]	_	1r	.	1EM	E:maj (E G# B)	.	.	voice
=43	=43	=43	=43	=43	=43	=43	=43	=43
2r	.	1r	.	1EM	E:maj (E G# B)	.	.	voice
4r	.	.	.	.	.	.	.	.
8r	.	.	.	.	.	.	.	.
8[G#	These	.	.	.	.	.	.	.
=44	=44	=44	=44	=44	=44	=44	=44	=44
*	*	*	*	*>B_verse	*>B_verse	*>B_verse	*>B_verse	*>B_verse
8G#]	_	1r	.	1EM	E:maj6(9) (E G# B C# F#)	newline	84.06	voice
4G#	streets	.	.	.	.	.	.	.
8[B	were	.	.	.	.	.	.	.
8B]	_	.	.	.	.	.	.	.
8B	ne-	.	.	.	.	.	.	.
8c#	-ver	.	.	.	.	.	.	.
8[B	high	.	.	.	.	.	.	.
=45	=45	=45	=45	=45	=45	=45	=45	=45
8B]	_	1r	.	1G#mm	G#:min7 (G# B D# F#)	.	.	voice
4.c#	ways	.	.	.	.	.	.	.
4r	.	.	.	.	.	.	.	.
8r	.	.	.	.	.	.	.	.
8G#	I	.	.	.	.	.	.	.
=46	=46	=46	=46	=46	=46	=46	=46	=46
8F#	had	1r	.	1F#mm	F#:min7 (F# A C# E)	.	.	voice
4A	not	.	.	.	.	.	.	.
8[A	known	.	.	.	.	.	.	.
4A]	_	.	.	.	.	.	.	.
8G#	the	.	.	.	.	.	.	.
8G#q	_	.	.	.	.	.	.	.
8[A	sky	.	.	.	.	.	.	.
=47	=47	=47	=47	=47	=47	=47	=47	=47
4A]	_	1r	.	1BMm	B:7 (B D# F# A)	.	.	voice
8A	a-	.	.	.	.	.	.	.
8G#	-bove	.	.	.	.	.	.	.
8F#	_	.	.	.	.	.	.	.
8r	.	.	.	.	.	.	.	.
4F#	these	.	.	.	.	.	.	.
=48	=48	=48	=48	=48	=48	=48	=48	=48
4E	days	1r	.	2C#m	C#:min (C# E G#)	newline	91.657	voice
8r	.	.	.	.	.	.	.	.
8G#	were	.	.	.	.	.	.	.
8G#	ne-	.	.	2EM	E:maj (B E G#)	.	.	voice
4G#	-ver	.	.	.	.	.	.	.
8[G#	my	.	.	.	.	.	.	.
=49	=49	=49	=49	=49	=49	=49	=49	=49
8G#]	_	1r	.	2AM	A:maj (A C# E)	.	.	voice
4F#	days	.	.	.	.	.	.	.
8[E	for	.	.	.	.	.	.	.
8E]	_	.	.	2G#mm	G#:min7 (G# B D# F#)	.	.	voice
4.C#	I	.	.	.	.	.	.	.
=50	=50	=50	=50	=50	=50	=50	=50	=50
4F#	had	1r	.	1F#mm	F#:min7 (F# A C# E)	.	.	voice
4F#	not	.	.	.	.	.	.	.
4F#	known	.	.	.	.	.	.	.
8F#	your	.	.	.	.	.	.	.
8Eq	_	.	.	.	.	.	.	.
8[F#	love	.	.	.	.	.	.	.
=51	=51	=51	=51	=51	=51	=51	=51	=51
4.F#]	_	1r	.	1BMm	B:7 (B D# F# A)	.	.	voice
8r	.	.	.	.	.	.	.	.
4r	.	.	.	.	.	.	.	.
8r	.	.	.	.	.	.	.	.
8BB~	It's	.	.	.	.	.	.	.
=52	=52	=52	=52	=52	=52	=52	=52	=52
8G#	fun-	1r	.	1EM	E:maj6(9) (E G# B C# F#)	newline	99.221	voice
4B	-ny	.	.	.	.	.	.	.
8[B	how	.	.	.	.	.	.	.
4B]	_	.	.	.	.	.	.	.
8c#	a	.	.	.	.	.	.	.
8[B	ci	.	.	.	.	.	.	.
=53	=53	=53	=53	=53	=53	=53	=53	=53
8B]	_	1r	.	1G#mm	G#:min7 (G# B D# F#)	.	.	voice
8c#	ty	.	.	.	.	.	.	.
8r	.	.	.	.	.	.	.	.
8[B	can	.	.	.	.	.	.	.
8B]	_	.	.	.	.	.	.	.
4G#	put	.	.	.	.	.	.	.
8[F#	on	.	.	.	.	.	.	.
=54	=54	=54	=54	=54	=54	=54	=54	=54
8F#]	_	1r	.	1F#mm	F#:min7 (F# A C# E)	.	.	voice
4A	a	.	.	.	.	.	.	.
8[A	diff	.	.	.	.	.	.	.
8A]	_	.	.	.	.	.	.	.
4A	'rent	.	.	.	.	.	.	.
8G#q	_	.	.	.	.	.	.	.
8[A	face	.	.	.	.	.	.	.
=55	=55	=55	=55	=55	=55	=55	=55	=55
4.A]	_	1r	.	1BMm	B:7 (B D# F# A)	.	.	voice
8r	.	.	.	.	.	.	.	.
8r	.	.	.	.	.	.	.	.
8G#~	when	.	.	.	.	.	.	.
8F#	it	.	.	.	.	.	.	.
8[E	holds	.	.	.	.	.	.	.
=56	=56	=56	=56	=56	=56	=56	=56	=56
4E]	_	1r	.	2C#m	C#:min (C# E G#)	newline	106.776	voice
8G#	the	.	.	.	.	.	.	.
8[G#	one	.	.	.	.	.	.	.
8G#]	_	.	.	2EM	E:maj (B E G#)	.	.	voice
4G#	you	.	.	.	.	.	.	.
8[G#	care	.	.	.	.	.	.	.
=57	=57	=57	=57	=57	=57	=57	=57	=57
8G#]	_	1r	.	2AM	A:maj (A C# E)	.	.	voice
4.F#	for	.	.	.	.	.	.	.
8r	.	.	.	2G#mm	G#:min7 (G# B D# F#)	.	.	voice
8C#	it	.	.	.	.	.	.	.
8E~	be-	.	.	.	.	.	.	.
8[F#	-comes	.	.	.	.	.	.	.
=58	=58	=58	=58	=58	=58	=58	=58	=58
8F#]	_	1r	.	1F#mm	F#:min7 (F# A C# E)	.	.	voice
4F#	a	.	.	.	.	.	.	.
8[F#	diff	.	.	.	.	.	.	.
8F#]	_	.	.	.	.	.	.	.
4F#	'rent	.	.	.	.	.	.	.
8E	place	.	.	.	.	.	.	.
=59	=59	=59	=59	=59	=59	=59	=59	=59
2F#	_	1r	.	1BMm	B:7 (B D# F# A)	.	.	voice
8r	.	.	.	.	.	.	.	.
8c#~	And	.	.	.	.	.	.	.
8c#	I	.	.	.	.	.	.	.
8[c#	ne	.	.	.	.	.	.	.
=60	=60	=60	=60	=60	=60	=60	=60	=60
*	*	*	*	*>C2_prechorus	*>C2_prechorus	*>C2_prechorus	*>C2_prechorus	*>C2_prechorus
8c#]	_	1r	.	1AM	A:maj (A C# E)	newline	114.202	voice
4c#	ver	.	.	.	.	.	.	.
8[c#	felt	.	.	.	.	.	.	.
8c#]	_	.	.	.	.	.	.	.
4.[e	so	.	.	.	.	.	.	.
=61	=61	=61	=61	=61	=61	=61	=61	=61
8e]	_	1r	.	1BM	B:maj (B D# F#)	.	.	voice
4.[d#	far	.	.	.	.	.	.	.
8d#]	_	.	.	.	.	.	.	.
8c#	from	.	.	.	.	.	.	.
8d#	a-	.	.	.	.	.	.	.
8[B	-lone	.	.	.	.	.	.	.
=62	=62	=62	=62	=62	=62	=62	=62	=62
1B]	_	1r	.	1G#m	G#:min (G# B D#)	.	.	voice
=63	=63	=63	=63	=63	=63	=63	=63	=63
2r	.	1r	.	1C#m	C#:min (C# E G#)	.	.	voice
8r	.	.	.	.	.	.	.	.
4.G#	Oh	.	.	.	.	.	.	.
=64	=64	=64	=64	=64	=64	=64	=64	=64
4.A	ba-	1r	.	1F#m	F#:min (F# A C#)	newline	121.725	voice
8A	-by	.	.	.	.	.	.	.
4r	.	.	.	.	.	.	.	.
8r	.	.	.	.	.	.	.	.
8A~	you	.	.	.	.	.	.	.
=65	=65	=65	=65	=65	=65	=65	=65	=65
4G#	brought	1r	.	1BM	B:maj (B D# F#)	.	.	voice
4F#	me	.	.	.	.	.	.	.
4E	half-	.	.	.	.	.	.	.
8Eq	_	.	.	.	.	.	.	.
4[F#	-way	.	.	.	.	.	.	.
=66	=66	=66	=66	=66	=66	=66	=66	=66
8F#]	_	1r	.	1F#m	F#:min (F# A C#)	.	.	voice
8Eq	_	.	.	.	.	.	.	.
8[F#	home	.	.	.	.	.	.	.
2.F#_	_	.	.	.	.	.	.	.
=67	=67	=67	=67	=67	=67	=67	=67	=67
4F#]	_	1r	.	1BM	B:maj (B D# F#)	.	.	voice
4r	.	.	.	.	.	.	.	.
4r	.	.	.	.	.	.	.	.
4G#	Oh,	.	.	.	.	.	.	.
=68	=68	=68	=68	=68	=68	=68	=68	=68
4.A	ba-	1r	.	1N	N	newline	129.312	voice
8[A	-by	.	.	.	.	.	.	.
4A]	_	.	.	.	.	.	.	.
8r	.	.	.	.	.	.	.	.
8A~	you	.	.	.	.	.	.	.
=69	=69	=69	=69	=69	=69	=69	=69	=69
4G#	brought	1r	.	1N	N	.	.	voice
4F#	me	.	.	.	.	.	.	.
4E	half-	.	.	.	.	.	.	.
4[E	-way	.	.	.	.	.	.	.
=70	=70	=70	=70	=70	=70	=70	=70	=70
8E]	_	1r	.	1N	N	.	.	voice
8C#q	_	.	.	.	.	.	.	.
8[E	home	.	.	.	.	.	.	.
2.E_	_	.	.	.	.	.	.	.
=71	=71	=71	=71	=71	=71	=71	=71	=71
2E]	_	1r	.	1N	N	.	.	voice
2r	.	.	.	.	.	.	.	.
=72	=72	=72	=72	=72	=72	=72	=72	=72
*	*	*	*	*>D_chorus	*>D_chorus	*>D_chorus	*>D_chorus	*>D_chorus
4r	.	1r	.	1EM	E:maj (E G# B)	newline	136.696	voice
4B	You	.	.	.	.	.	.	.
4B	brought	.	.	.	.	.	.	.
4B	your	.	.	.	.	.	.	.
=73	=73	=73	=73	=73	=73	=73	=73	=73
4B	Sun-	1r	.	1EM	E:maj (E G# B)	.	.	voice
8G#	-day	.	.	.	.	.	.	.
8[A	mor	.	.	.	.	.	.	.
8A]	_	.	.	.	.	.	.	.
8A	ning	.	.	.	.	.	.	.
4B	_	.	.	.	.	.	.	.
=74	=74	=74	=74	=74	=74	=74	=74	=74
4.B	sun-	1r	.	1F#Mm	F#:11 (F# A# E B)	.	.	voice
8[A	-shine	.	.	.	.	.	.	.
2A]	_	.	.	.	.	.	.	.
=75	=75	=75	=75	=75	=75	=75	=75	=75
1r	.	1r	.	1F#Mm	F#:11 (F# A# E B)	.	.	voice
=76	=76	=76	=76	=76	=76	=76	=76	=76
4c#	here	1r	.	1DM	D:maj (D F# A)	newline	144.452	voice
4c#	in-	.	.	.	.	.	.	.
4c#	-to	.	.	.	.	.	.	.
4c#	my	.	.	.	.	.	.	.
=77	=77	=77	=77	=77	=77	=77	=77	=77
4c#	Mon-	1r	.	1AM	A:maj (A C# E)	.	.	voice
8c#	-day	.	.	.	.	.	.	.
8[c#	mor	.	.	.	.	.	.	.
8c#]	_	.	.	.	.	.	.	.
4B	ning	.	.	.	.	.	.	.
8[B	rain	.	.	.	.	.	.	.
=78	=78	=78	=78	=78	=78	=78	=78	=78
2B]	_	1r	.	1EM	E:maj (E G# B)	.	.	voice
2r	.	.	.	.	.	.	.	.
=79	=79	=79	=79	=79	=79	=79	=79	=79
1r	.	1r	.	1EM	E:maj (E G# B)	.	.	voice
=80	=80	=80	=80	=80	=80	=80	=80	=80
4r	.	1r	.	1EM	E:maj (E G# B)	newline	152.149	voice
4B	You	.	.	.	.	.	.	.
4B	taught	.	.	.	.	.	.	.
4B	me	.	.	.	.	.	.	.
=81	=81	=81	=81	=81	=81	=81	=81	=81
4B	hap-	1r	.	1EM	E:maj (E G# B)	.	.	voice
8G#	-pi-	.	.	.	.	.	.	.
8[A	-ness	.	.	.	.	.	.	.
4A]	_	.	.	.	.	.	.	.
4B	just	.	.	.	.	.	.	.
=82	=82	=82	=82	=82	=82	=82	=82	=82
8Aq	_	.	.	.	.	.	.	.
4.B	one	1r	.	1F#Mm	F#:11 (F# A# E B)	.	.	voice
8[A	time	.	.	.	.	.	.	.
2A]	_	.	.	.	.	.	.	.
=83	=83	=83	=83	=83	=83	=83	=83	=83
1r	.	1r	.	1F#Mm	F#:11 (F# A# E B)	.	.	voice
=84	=84	=84	=84	=84	=84	=84	=84	=84
4r	.	1r	.	1DM	D:maj (D F# A)	newline	159.855	voice
4c#	It	.	.	.	.	.	.	.
4c#	keeps	.	.	.	.	.	.	.
4c#	on	.	.	.	.	.	.	.
=85	=85	=85	=85	=85	=85	=85	=85	=85
8c#	co-	1r	.	1AM	A:maj (A C# E)	.	.	voice
4c#	-ming	.	.	.	.	.	.	.
8c#	back	.	.	.	.	.	.	.
4r	.	.	.	.	.	.	.	.
8B	a	.	.	.	.	.	.	.
8Bq	_	.	.	.	.	.	.	.
8[c#	gain	.	.	.	.	.	.	.
=86	=86	=86	=86	=86	=86	=86	=86	=86
2c#]	_	1r	.	1EM	E:maj (E G# B)	.	.	voice
8B	and	.	.	.	.	.	.	.
4c#	a	.	.	.	.	.	.	.
8Bq	_	.	.	.	.	.	.	.
8[c#	gain	.	.	.	.	.	.	.
=87	=87	=87	=87	=87	=87	=87	=87	=87
4.c#]	_	1r	.	1EM	E:maj (E G# B)	.	.	voice
8[B	and	.	.	.	.	.	.	.
8B]	_	.	.	.	.	.	.	.
4.c#	a!	.	.	.	.	.	.	.
=88	=88	=88	=88	=88	=88	=88	=88	=88
*	*	*	*	*>D_chorus	*>D_chorus	*>D_chorus	*>D_chorus	*>D_chorus
4r	.	4r	.	1EM	E:maj (E G# B)	newline	167.555	voice
4B	You	4g#	You	.	.	.	.	.
4B	brought	4g#	brought	.	.	.	.	.
4B	your	4g#	your	.	.	.	.	.
=89	=89	=89	=89	=89	=89	=89	=89	=89
4B	Sun-	4g#	Sun-	1EM	E:maj (E G# B)	.	.	voice
8G#	-day	8e	-day	.	.	.	.	.
8[A	mor	8[f#	mor	.	.	.	.	.
8A]	_	8f#]	_	.	.	.	.	.
8A	ning	8f#	ning	.	.	.	.	.
4B	_	4g#	_	.	.	.	.	.
=90	=90	=90	=90	=90	=90	=90	=90	=90
4.B	sun-	4.g#	sun-	1F#Mm	F#:11 (F# A# E B)	.	.	voice
8[A	-shine	8[f#	-shine	.	.	.	.	.
2A]	_	2f#]	_	.	.	.	.	.
=91	=91	=91	=91	=91	=91	=91	=91	=91
1r	.	1r	.	1F#Mm	F#:11 (F# A# E B)	.	.	voice
=92	=92	=92	=92	=92	=92	=92	=92	=92
8c#	here	8a	here	1DM	D:maj (D F# A)	newline	175.23	voice
4c#	in-	4a	in-	.	.	.	.	.
8[c#	-to	8[a	-to	.	.	.	.	.
8c#]	_	8a]	_	.	.	.	.	.
4.c#	my	4.a	my	.	.	.	.	.
=93	=93	=93	=93	=93	=93	=93	=93	=93
4c#	Mon-	4a	Mon-	1AM	A:maj (A C# E)	.	.	voice
4c#	-day	4a	-day	.	.	.	.	.
8B#q	_	8g#q	_	.	.	.	.	.
4c#	mor-	4a	mor-	.	.	.	.	.
8B	-ning	8a	-ning	.	.	.	.	.
8[B	rain	8[g#	rain	.	.	.	.	.
=94	=94	=94	=94	=94	=94	=94	=94	=94
2B]	_	2g#]	_	1EM	E:maj (E G# B)	.	.	voice
2r	.	2r	.	.	.	.	.	.
=95	=95	=95	=95	=95	=95	=95	=95	=95
1r	.	1r	.	2EM	E:maj (E G# B)	.	.	voice
.	.	.	.	2BM	B:maj (B D# F#)	.	.	voice
=96	=96	=96	=96	=96	=96	=96	=96	=96
4r	.	4r	.	1EM	E:maj (E G# B)	newline	182.849	voice
4B	You	4g#	You	.	.	.	.	.
4B	taught	4g#	taught	.	.	.	.	.
4B	me	4g#	me	.	.	.	.	.
=97	=97	=97	=97	=97	=97	=97	=97	=97
4B	hap-	4g#	hap-	1EM	E:maj (E G# B)	.	.	voice
8G#	-pi-	8e	-pi-	.	.	.	.	.
8[A	-ness	8[f#	-ness	.	.	.	.	.
8A]	_	8f#]	_	.	.	.	.	.
8r	.	8r	.	.	.	.	.	.
4B	just	4g#	just	.	.	.	.	.
=98	=98	=98	=98	=98	=98	=98	=98	=98
8Aq	_	8f#q	_	.	.	.	.	.
4.B	one	4.g#	one	1F#Mm	F#:11 (F# A# E B)	.	.	voice
8[A	time	8[f#	time	.	.	.	.	.
4.A]	_	4.f#]	_	.	.	.	.	.
8r	.	8r	.	.	.	.	.	.
=99	=99	=99	=99	=99	=99	=99	=99	=99
1r	.	1r	.	1F#Mm	F#:11 (F# A# E B)	.	.	voice
=100	=100	=100	=100	=100	=100	=100	=100	=100
4r	.	4r	.	1DM	D:maj (D F# A)	newline	190.522	voice
4c#	It	4a	It	.	.	.	.	.
4c#	keeps	4a	keeps	.	.	.	.	.
4c#	on	4a	on	.	.	.	.	.
=101	=101	=101	=101	=101	=101	=101	=101	=101
8c#	co-	8a	co-	1AM	A:maj (A C# E)	.	.	voice
4c#	-ming	4a	-ming	.	.	.	.	.
8c#	back	8a	back	.	.	.	.	.
4r	.	4r	.	.	.	.	.	.
8B	a	8a	a	.	.	.	.	.
8Bq	_	.	.	.	.	.	.	.
8[c#	gain	8[g#	gain	.	.	.	.	.
=102	=102	=102	=102	=102	=102	=102	=102	=102
2c#]	_	2g#]	_	1EM	E:maj (E G# B)	.	.	voice
8B	and	8g#	and	.	.	.	.	.
4c#	a	4g#	a	.	.	.	.	.
8Bq	_	.	.	.	.	.	.	.
8[c#	gain	8[a	gain	.	.	.	.	.
=103	=103	=103	=103	=103	=103	=103	=103	=103
4.c#]	_	4.a]	_	2EM	E:maj (E G# B)	.	.	voice
8[B	and	8[a	and	.	.	.	.	.
8B]	_	8a]	_	2BM	B:maj (B D# F#)	.	.	voice
4.c#	a!	4.a	a!	.	.	.	.	.
=104	=104	=104	=104	=104	=104	=104	=104	=104
*	*	*	*	*>D_chorus	*>D_chorus	*>D_chorus	*>D_chorus	*>D_chorus
4r	.	4r	.	1EM	E:maj (E G# B)	newline	198.136	voice
4B	You	4g#	You	.	.	.	.	.
4B	brought	4g#	brought	.	.	.	.	.
4B	your	4g#	your	.	.	.	.	.
=105	=105	=105	=105	=105	=105	=105	=105	=105
4B	Sun-	4g#	Sun-	1EM	E:maj (E G# B)	.	.	voice
8G#	-day	8e	-day	.	.	.	.	.
8[A	mor	8[f#	mor	.	.	.	.	.
8A]	_	8f#]	_	.	.	.	.	.
8A	ning	8f#	ning	.	.	.	.	.
4B	_	4g#	_	.	.	.	.	.
=106	=106	=106	=106	=106	=106	=106	=106	=106
4.B	sun-	4.g#	sun-	1F#Mm	F#:11 (F# A# E B)	.	.	voice
8[A	-shine	8[f#	-shine	.	.	.	.	.
2A]	_	2f#]	_	.	.	.	.	.
=107	=107	=107	=107	=107	=107	=107	=107	=107
1r	.	1r	.	1F#Mm	F#:11 (F# A# E B)	.	.	voice
=108	=108	=108	=108	=108	=108	=108	=108	=108
*	*	*	*	*>_fadeout	*>_fadeout	*>_fadeout	*>_fadeout	*>_fadeout
8c#	here	8a	here	1DM	D:maj (D F# A)	newline	205.842	voice
4c#	in-	4a	in-	.	.	.	.	.
8[c#	-to	8[a	-to	.	.	.	.	.
8c#]	_	8a]	_	.	.	.	.	.
4c#	my	4a	my	.	.	.	.	.
8[c#	Mon	8[a	Mon	.	.	.	.	.
=109	=109	=109	=109	=109	=109	=109	=109	=109
8c#]	_	8a]	_	1AM	A:maj (A C# E)	.	.	voice
4c#	day	4a	day	.	.	.	.	.
8[c#	mor	8[a	mor	.	.	.	.	.
8B#q	_	.	.	.	.	.	.	.
4c#]	_	8a]	_	.	.	.	.	.
.	.	4g#	_	.	.	.	.	.
8B	ning	.	.	.	.	.	.	.
8[B	rain	8[g#	rain	.	.	.	.	.
=110	=110	=110	=110	=110	=110	=110	=110	=110
2B]	_	2g#]	_	1EM	E:maj (E G# B)	.	.	voice
2r	.	2r	.	.	.	.	.	.
=111	=111	=111	=111	=111	=111	=111	=111	=111
1r	.	1r	.	2EM	E:maj (E G# B)	.	.	voice
.	.	.	.	2BM	B:maj (B D# F#)	.	.	voice
=112	=112	=112	=112	=112	=112	=112	=112	=112
4r	.	4r	.	1EM	E:maj (E G# B)	newline	213.484	voice
4B	You	4g#	You	.	.	.	.	.
4B	taught	4g#	taught	.	.	.	.	.
4B	me	4g#	me	.	.	.	.	.
=113	=113	=113	=113	=113	=113	=113	=113	=113
4B	hap-	4g#	hap-	1EM	E:maj (E G# B)	.	.	voice
8G#	-pi-	8e	-pi-	.	.	.	.	.
8[A	-ness	8[f#	-ness	.	.	.	.	.
8A]	_	8f#]	_	.	.	.	.	.
8r	.	8r	.	.	.	.	.	.
4B	just	4g#	just	.	.	.	.	.
=114	=114	=114	=114	=114	=114	=114	=114	=114
8Aq	_	8f#q	_	.	.	.	.	.
4.B	one	4.g#	one	1F#Mm	F#:11 (F# A# E B)	.	.	voice
8[A	time	8[f#	time	.	.	.	.	.
4.A]	_	4.f#]	_	.	.	.	.	.
8r	.	8r	.	.	.	.	.	.
=115	=115	=115	=115	=115	=115	=115	=115	=115
1r	.	1r	.	1F#Mm	F#:11 (F# A# E B)	.	.	voice
=116	=116	=116	=116	=116	=116	=116	=116	=116
4r	.	4r	.	1DM	D:maj (D F# A)	newline	221.109	voice
4c#	It	4a	It	.	.	.	.	.
4c#	keeps	4a	keeps	.	.	.	.	.
4c#	on	4a	on	.	.	.	.	.
=117	=117	=117	=117	=117	=117	=117	=117	=117
8c#	co-	8a	co-	1AM	A:maj (A C# E)	.	.	voice
4c#	-ming	4a	-ming	.	.	.	.	.
8c#	back	8a	back	.	.	.	.	.
4r	.	4r	.	.	.	.	.	.
8B	a	8a	a	.	.	.	.	.
8Bq	_	.	.	.	.	.	.	.
8[c#	gain	8[g#	gain	.	.	.	.	.
=118	=118	=118	=118	=118	=118	=118	=118	=118
2c#]	_	2g#]	_	1EM	E:maj (E G# B)	.	.	voice
8B	and	8g#	and	.	.	.	.	.
4c#	a	4g#	a	.	.	.	.	.
8Bq	_	.	.	.	.	.	.	.
8[c#	gain	8[a	gain	.	.	.	.	.
=119	=119	=119	=119	=119	=119	=119	=119	=119
4.c#]	_	4.a]	_	1EM	E:maj (E G# B)	.	.	voice
8[B	and	8[a	and	.	.	.	.	.
8B]	_	8a]	_	.	.	.	.	.
4.c#	a!	4.a	a!	.	.	.	.	.
r;	.	r;	.	1r;	r	.	224.908	r
r;	.	r;	.	1r;	r	.	228.232	r
*-	*-	*-	*-	*-	*-	*-	*-	*-
!!!BillboardChartDate: 1972/11/25
!!!BillboardPeak: 75
!!!BillboardWeeksOnChart: 6
!!!COC: Harry Chapin
!!!ENC: Nathaniel Condit-Schultz
!!!EST: Awating manual error checking and editing.
!!!OTL: Sunday Morning Sunshine
!!!RDF**chordsym: original McGill chord annotation + (implied pitch class set, with bass pitch in first position)
!!!RDF**harmony: **recip + pitch class of root + harmonic quality
!!!RDF**leadinstrument: original McGill primary instrumentation annotation
!!!RDF**phrase: newline = linebreak in original McGill transcription
!!!RDF**timestamp: McGill audio timestamp in seconds
!!!RDT: 2017/01/12/
!!!SampleActualRank: 80
!!!SampleID#: 0412
!!!SampleTargetRank: 78
